assets/icons/24px/outline/dpad-24px.svg

<svg width="24" height="24" viewBox="0 0 24 24" fill="none" xmlns="http://www.w3.org/2000/svg">
<path d="M15.3227 10.6234L14.5973 9.93509L15.3227 10.6234ZM15.3227 13.3766L14.5973 14.0649L15.3227 13.3766ZM17.4341 14.4951L17.5038 13.4976L17.4341 14.4951ZM16.6345 14.2658L17.104 13.3829L16.6345 14.2658ZM17.717 9.5L17.717 8.5L17.717 9.5ZM17.4341 9.50487L17.5038 10.5024L17.4341 9.50487ZM16.6345 9.73418L16.165 8.85127L16.6345 9.73418ZM19.3902 9.53843L19.5853 8.55764L19.3902 9.53843ZM18.5 8.5L17.717 8.5L17.717 10.5L18.5 10.5L18.5 8.5ZM17.717 15.5L18.5 15.5L18.5 13.5L17.717 13.5L17.717 15.5ZM15.862 9.03201C15.3291 9.36506 14.8837 9.63324 14.5973 9.93509L16.0482 11.3117C16.112 11.2444 16.2627 11.1401 16.922 10.728L15.862 9.03201ZM16.922 13.272C16.2627 12.8599 16.112 12.7556 16.0482 12.6883L14.5973 14.0649C14.8837 14.3668 15.3291 14.6349 15.862 14.968L16.922 13.272ZM14.5973 9.93509C13.499 11.0926 13.499 12.9074 14.5973 14.0649L16.0482 12.6883C15.6821 12.3025 15.6821 11.6975 16.0482 11.3117L14.5973 9.93509ZM20 12C20 12.5126 19.9952 12.6228 19.9808 12.6951L21.9424 13.0853C22.0048 12.7711 22 12.4167 22 12L20 12ZM18.5 15.5C18.9167 15.5 19.2711 15.5048 19.5853 15.4424L19.1951 13.4808C19.1228 13.4952 19.0126 13.5 18.5 13.5L18.5 15.5ZM19.9808 12.6951C19.9019 13.0918 19.5918 13.4019 19.1951 13.4808L19.5853 15.4424C20.7753 15.2056 21.7056 14.2753 21.9424 13.0853L19.9808 12.6951ZM17.717 13.5C17.5613 13.5 17.5307 13.4994 17.5038 13.4976L17.3643 15.4927C17.4768 15.5006 17.5883 15.5 17.717 15.5L17.717 13.5ZM15.862 14.968C15.9711 15.0362 16.0654 15.0958 16.165 15.1487L17.104 13.3829C17.0803 13.3703 17.054 13.3545 16.922 13.272L15.862 14.968ZM17.5038 13.4976C17.364 13.4878 17.2278 13.4487 17.104 13.3829L16.165 15.1487C16.5362 15.3462 16.9448 15.4634 17.3643 15.4927L17.5038 13.4976ZM17.717 8.5C17.5883 8.5 17.4768 8.49944 17.3643 8.50731L17.5038 10.5024C17.5307 10.5006 17.5613 10.5 17.717 10.5L17.717 8.5ZM16.922 10.728C17.054 10.6455 17.0803 10.6297 17.104 10.6171L16.165 8.85127C16.0654 8.90424 15.9711 8.9638 15.862 9.03201L16.922 10.728ZM17.3643 8.50731C16.9448 8.53665 16.5362 8.65383 16.165 8.85127L17.104 10.6171C17.2278 10.5513 17.364 10.5122 17.5038 10.5024L17.3643 8.50731ZM22 12C22 11.5833 22.0048 11.2289 21.9424 10.9147L19.9808 11.3049C19.9952 11.3772 20 11.4874 20 12L22 12ZM18.5 10.5C19.0126 10.5 19.1228 10.5048 19.1951 10.5192L19.5853 8.55764C19.2711 8.49516 18.9167 8.5 18.5 8.5L18.5 10.5ZM21.9424 10.9147C21.7056 9.72466 20.7753 8.79436 19.5853 8.55764L19.1951 10.5192C19.5918 10.5981 19.9019 10.9082 19.9808 11.3049L21.9424 10.9147Z" fill="white"/>
<path d="M10.6234 8.67725L9.93509 9.40268L10.6234 8.67725ZM13.3766 8.67725L14.0649 9.40268L13.3766 8.67725ZM12.8902 3.03843L13.0853 2.05764L12.8902 3.03843ZM14.2658 7.3655L15.1487 7.83504L14.2658 7.3655ZM9.5 6.28301L10.5 6.28301L9.5 6.28301ZM9.50487 6.56594L10.5024 6.49618L9.50487 6.56594ZM9.73418 7.3655L10.6171 6.89595L9.73418 7.3655ZM11.1098 3.03843L10.9147 2.05764L11.1098 3.03843ZM9.5 5.5L8.5 5.5L9.5 5.5ZM9.53843 4.60982L8.55764 4.41473L9.53843 4.60982ZM8.5 5.5L8.5 6.28301L10.5 6.28301L10.5 5.5L8.5 5.5ZM15.5 6.28301L15.5 5.5L13.5 5.5L13.5 6.28301L15.5 6.28301ZM9.03201 8.13801C9.36506 8.67089 9.63324 9.11627 9.93509 9.40268L11.3117 7.95183C11.2444 7.88802 11.1401 7.7373 10.728 7.07801L9.03201 8.13801ZM13.272 7.07801C12.8599 7.7373 12.7556 7.88802 12.6883 7.95183L14.0649 9.40268C14.3668 9.11627 14.6349 8.67089 14.968 8.13801L13.272 7.07801ZM9.93509 9.40268C11.0926 10.501 12.9074 10.501 14.0649 9.40268L12.6883 7.95183C12.3025 8.31793 11.6975 8.31793 11.3117 7.95183L9.93509 9.40268ZM12 4C12.5126 4 12.6228 4.00484 12.6951 4.01921L13.0853 2.05764C12.7711 1.99516 12.4167 2 12 2L12 4ZM15.5 5.5C15.5 5.08328 15.5048 4.72888 15.4424 4.41473L13.4808 4.80491C13.4952 4.87716 13.5 4.98741 13.5 5.5L15.5 5.5ZM12.6951 4.01921C13.0918 4.09812 13.4019 4.40822 13.4808 4.80491L15.4424 4.41473C15.2056 3.22466 14.2753 2.29436 13.0853 2.05764L12.6951 4.01921ZM13.5 6.28301C13.5 6.43865 13.4994 6.46934 13.4976 6.49618L15.4927 6.63571C15.5006 6.52319 15.5 6.4117 15.5 6.28301L13.5 6.28301ZM14.968 8.13801C15.0362 8.02887 15.0958 7.93463 15.1487 7.83504L13.3829 6.89595C13.3703 6.91971 13.3545 6.94602 13.272 7.07801L14.968 8.13801ZM13.4976 6.49618C13.4878 6.636 13.4487 6.7722 13.3829 6.89595L15.1487 7.83504C15.3462 7.46379 15.4634 7.05518 15.4927 6.63571L13.4976 6.49618ZM8.5 6.28301C8.5 6.4117 8.49944 6.52319 8.50731 6.63571L10.5024 6.49618C10.5006 6.46934 10.5 6.43865 10.5 6.28301L8.5 6.28301ZM10.728 7.07801C10.6455 6.94602 10.6297 6.91971 10.6171 6.89595L8.85127 7.83504C8.90424 7.93463 8.9638 8.02887 9.03201 8.13801L10.728 7.07801ZM8.50731 6.63571C8.53665 7.05518 8.65384 7.46379 8.85127 7.83504L10.6171 6.89595C10.5513 6.7722 10.5122 6.636 10.5024 6.49618L8.50731 6.63571ZM12 2C11.5833 2 11.2289 1.99516 10.9147 2.05764L11.3049 4.01921C11.3772 4.00484 11.4874 4 12 4L12 2ZM10.5 5.5C10.5 4.98741 10.5048 4.87716 10.5192 4.80491L8.55764 4.41473C8.49516 4.72888 8.5 5.08328 8.5 5.5L10.5 5.5ZM10.9147 2.05764C9.72466 2.29436 8.79436 3.22466 8.55764 4.41473L10.5192 4.80491C10.5981 4.40822 10.9082 4.09812 11.3049 4.01921L10.9147 2.05764Z" fill="white"/>
<path d="M8.67725 13.3766L9.40268 14.0649L8.67725 13.3766ZM8.67725 10.6234L7.95183 11.3117L8.67725 10.6234ZM4.60982 9.53843L4.41473 8.55764L4.60982 9.53843ZM7.3655 9.73418L7.83504 8.85127L7.3655 9.73418ZM6.28301 14.5L6.28301 15.5L6.28301 14.5ZM6.56594 14.4951L6.49618 13.4976L6.56594 14.4951ZM7.3655 14.2658L6.89595 13.3829L7.3655 14.2658ZM3.03843 12.8902L2.05764 13.0853L3.03843 12.8902ZM5.5 14.5L5.5 15.5L5.5 14.5ZM5.5 15.5L6.28301 15.5L6.28301 13.5L5.5 13.5L5.5 15.5ZM6.28301 8.5L5.5 8.5L5.5 10.5L6.28301 10.5L6.28301 8.5ZM8.13801 14.968C8.67089 14.6349 9.11627 14.3668 9.40268 14.0649L7.95183 12.6883C7.88802 12.7556 7.7373 12.8599 7.07801 13.272L8.13801 14.968ZM7.07801 10.728C7.7373 11.1401 7.88802 11.2444 7.95183 11.3117L9.40268 9.93509C9.11627 9.63323 8.67089 9.36506 8.13801 9.03201L7.07801 10.728ZM9.40268 14.0649C10.501 12.9074 10.501 11.0926 9.40268 9.93509L7.95183 11.3117C8.31793 11.6975 8.31793 12.3025 7.95183 12.6883L9.40268 14.0649ZM4 12C4 11.4874 4.00484 11.3772 4.01921 11.3049L2.05764 10.9147C1.99516 11.2289 2 11.5833 2 12L4 12ZM5.5 8.5C5.08328 8.5 4.72888 8.49516 4.41473 8.55764L4.80491 10.5192C4.87716 10.5048 4.98741 10.5 5.5 10.5L5.5 8.5ZM4.01921 11.3049C4.09812 10.9082 4.40822 10.5981 4.80491 10.5192L4.41473 8.55764C3.22466 8.79436 2.29436 9.72466 2.05764 10.9147L4.01921 11.3049ZM6.28301 10.5C6.43865 10.5 6.46934 10.5006 6.49618 10.5024L6.63571 8.50731C6.52319 8.49944 6.4117 8.5 6.28301 8.5L6.28301 10.5ZM8.13801 9.03201C8.02887 8.9638 7.93463 8.90424 7.83504 8.85127L6.89595 10.6171C6.91971 10.6297 6.94602 10.6455 7.07801 10.728L8.13801 9.03201ZM6.49618 10.5024C6.636 10.5122 6.7722 10.5513 6.89595 10.6171L7.83504 8.85127C7.46379 8.65384 7.05518 8.53665 6.63571 8.50731L6.49618 10.5024ZM6.28301 15.5C6.4117 15.5 6.52319 15.5006 6.63571 15.4927L6.49618 13.4976C6.46934 13.4994 6.43865 13.5 6.28301 13.5L6.28301 15.5ZM7.07801 13.272C6.94602 13.3545 6.91971 13.3703 6.89595 13.3829L7.83504 15.1487C7.93463 15.0958 8.02887 15.0362 8.13801 14.968L7.07801 13.272ZM6.63571 15.4927C7.05518 15.4634 7.46379 15.3462 7.83504 15.1487L6.89595 13.3829C6.7722 13.4487 6.636 13.4878 6.49618 13.4976L6.63571 15.4927ZM2 12C2 12.4167 1.99516 12.7711 2.05764 13.0853L4.01921 12.6951C4.00484 12.6228 4 12.5126 4 12L2 12ZM5.5 13.5C4.98741 13.5 4.87716 13.4952 4.80491 13.4808L4.41473 15.4424C4.72888 15.5048 5.08328 15.5 5.5 15.5L5.5 13.5ZM2.05764 13.0853C2.29436 14.2753 3.22466 15.2056 4.41473 15.4424L4.80491 13.4808C4.40822 13.4019 4.09812 13.0918 4.01921 12.6951L2.05764 13.0853Z" fill="white"/>
<path d="M13.3766 15.3227L14.0649 14.5973L13.3766 15.3227ZM10.6234 15.3227L9.93509 14.5973L10.6234 15.3227ZM9.53843 19.3902L8.55764 19.5853L9.53843 19.3902ZM9.73418 16.6345L8.85127 16.165L9.73418 16.6345ZM14.5 17.717L15.5 17.717L14.5 17.717ZM14.4951 17.4341L13.4976 17.5038L14.4951 17.4341ZM14.2658 16.6345L15.1487 16.165L14.2658 16.6345ZM14.4616 19.3902L15.4424 19.5853L14.4616 19.3902ZM15.5 18.5L15.5 17.717L13.5 17.717L13.5 18.5L15.5 18.5ZM8.5 17.717L8.5 18.5L10.5 18.5L10.5 17.717L8.5 17.717ZM14.968 15.862C14.6349 15.3291 14.3668 14.8837 14.0649 14.5973L12.6883 16.0482C12.7556 16.112 12.8599 16.2627 13.272 16.922L14.968 15.862ZM10.728 16.922C11.1401 16.2627 11.2444 16.112 11.3117 16.0482L9.93509 14.5973C9.63323 14.8837 9.36506 15.3291 9.03201 15.862L10.728 16.922ZM14.0649 14.5973C12.9074 13.499 11.0926 13.499 9.93509 14.5973L11.3117 16.0482C11.6975 15.6821 12.3025 15.6821 12.6883 16.0482L14.0649 14.5973ZM12 20C11.4874 20 11.3772 19.9952 11.3049 19.9808L10.9147 21.9424C11.2289 22.0048 11.5833 22 12 22L12 20ZM8.5 18.5C8.5 18.9167 8.49516 19.2711 8.55764 19.5853L10.5192 19.1951C10.5048 19.1228 10.5 19.0126 10.5 18.5L8.5 18.5ZM11.3049 19.9808C10.9082 19.9019 10.5981 19.5918 10.5192 19.1951L8.55764 19.5853C8.79436 20.7753 9.72466 21.7056 10.9147 21.9424L11.3049 19.9808ZM10.5 17.717C10.5 17.5613 10.5006 17.5307 10.5024 17.5038L8.50731 17.3643C8.49944 17.4768 8.5 17.5883 8.5 17.717L10.5 17.717ZM9.03201 15.862C8.9638 15.9711 8.90424 16.0654 8.85127 16.165L10.6171 17.104C10.6297 17.0803 10.6455 17.054 10.728 16.922L9.03201 15.862ZM10.5024 17.5038C10.5122 17.364 10.5513 17.2278 10.6171 17.104L8.85127 16.165C8.65383 16.5362 8.53665 16.9448 8.50731 17.3643L10.5024 17.5038ZM15.5 17.717C15.5 17.5883 15.5006 17.4768 15.4927 17.3643L13.4976 17.5038C13.4994 17.5307 13.5 17.5613 13.5 17.717L15.5 17.717ZM13.272 16.922C13.3545 17.054 13.3703 17.0803 13.3829 17.104L15.1487 16.165C15.0958 16.0654 15.0362 15.9711 14.968 15.862L13.272 16.922ZM15.4927 17.3643C15.4634 16.9448 15.3462 16.5362 15.1487 16.165L13.3829 17.104C13.4487 17.2278 13.4878 17.364 13.4976 17.5038L15.4927 17.3643ZM12 22C12.4167 22 12.7711 22.0048 13.0853 21.9424L12.6951 19.9808C12.6228 19.9952 12.5126 20 12 20L12 22ZM13.5 18.5C13.5 19.0126 13.4952 19.1228 13.4808 19.1951L15.4424 19.5853C15.5048 19.2711 15.5 18.9167 15.5 18.5L13.5 18.5ZM13.0853 21.9424C14.2753 21.7056 15.2056 20.7753 15.4424 19.5853L13.4808 19.1951C13.4019 19.5918 13.0918 19.9019 12.6951 19.9808L13.0853 21.9424Z" fill="white"/>
</svg>

<svg width="24" height="24" fill="none" xmlns="http://www.w3.org/2000/svg"><path d="M15.323 10.623l-.726-.688.726.688zm0 2.754l-.726.688.726-.688zm2.111 1.118l.07-.997-.07.997zm-.8-.23l.47-.882-.47.883zM17.717 9.5v-1 1zm-.283.005l.07.997-.07-.997zm-.8.23l-.469-.884.47.883zm2.756-.197l.195-.98-.195.98zM18.5 8.5h-.783v2h.783v-2zm-.783 7h.783v-2h-.783v2zm-1.855-6.468c-.533.333-.978.601-1.265.903l1.451 1.377c.064-.068.215-.172.874-.584l-1.06-1.696zm1.06 4.24c-.66-.412-.81-.516-.874-.584l-1.45 1.377c.286.302.731.57 1.264.903l1.06-1.696zm-2.325-3.337a3 3 0 0 0 0 4.13l1.451-1.377a1 1 0 0 1 0-1.376l-1.45-1.377zM20 12c0 .513-.005.623-.02.695l1.962.39c.063-.314.058-.668.058-1.085h-2zm-1.5 3.5c.417 0 .771.005 1.085-.058l-.39-1.961c-.072.014-.182.019-.695.019v2zm1.48-2.805a1 1 0 0 1-.785.786l.39 1.961a3 3 0 0 0 2.357-2.357l-1.961-.39zm-2.263.805c-.156 0-.186 0-.213-.002l-.14 1.995c.113.008.224.007.353.007v-2zm-1.855 1.468c.11.068.203.128.303.18l.939-1.765a3.605 3.605 0 0 1-.182-.111l-1.06 1.696zm1.642-1.47a1.001 1.001 0 0 1-.4-.115l-.939 1.766c.371.197.78.314 1.2.344l.139-1.995zm.213-4.998c-.129 0-.24 0-.353.007l.14 1.995c.027-.001.057-.002.213-.002v-2zm-.795 2.228c.132-.082.158-.098.182-.11l-.939-1.767c-.1.053-.194.113-.303.181l1.06 1.696zm.442-2.22a3 3 0 0 0-1.199.343l.939 1.766c.124-.066.26-.105.4-.115l-.14-1.995zM22 12c0-.417.005-.771-.058-1.085l-1.961.39c.014.072.019.182.019.695h2zm-3.5-1.5c.513 0 .623.005.695.02l.39-1.962c-.314-.063-.668-.058-1.085-.058v2zm3.442.415a3 3 0 0 0-2.357-2.357l-.39 1.961a1 1 0 0 1 .786.786l1.961-.39zM10.623 8.677l-.688.726.688-.726zm2.754 0l.688.726-.688-.726zm-.487-5.639l.195-.98-.195.98zm1.376 4.328l.883.469-.883-.47zM9.5 6.282h1-1zm.005.283l.997-.07-.997.07zm.23.8l.882-.47-.883.47zm1.375-4.328l-.195-.98.195.98zM9.5 5.5h-1 1zm.038-.89l-.98-.195.98.195zM8.5 5.5v.783h2V5.5h-2zm7 .783V5.5h-2v.783h2zM9.032 8.138c.333.533.601.978.903 1.265l1.377-1.451c-.068-.064-.172-.215-.584-.874l-1.696 1.06zm4.24-1.06c-.412.66-.516.81-.584.874l1.377 1.45c.302-.286.57-.731.903-1.264l-1.696-1.06zM9.935 9.403a3 3 0 0 0 4.13 0l-1.377-1.451a1 1 0 0 1-1.376 0l-1.377 1.45zM12 4c.513 0 .623.005.695.02l.39-1.962C12.771 1.995 12.417 2 12 2v2zm3.5 1.5c0-.417.005-.771-.058-1.085l-1.961.39c.014.072.019.182.019.695h2zm-2.805-1.48a1 1 0 0 1 .786.785l1.961-.39a3 3 0 0 0-2.357-2.357l-.39 1.961zm.805 2.263c0 .156 0 .186-.002.213l1.995.14c.008-.113.007-.224.007-.353h-2zm1.468 1.855c.068-.11.128-.203.18-.303l-1.765-.939c-.013.024-.028.05-.111.182l1.696 1.06zm-1.47-1.642a1 1 0 0 1-.115.4l1.766.939c.197-.371.314-.78.344-1.2l-1.995-.139zM8.5 6.283c0 .129 0 .24.007.353l1.995-.14a3.706 3.706 0 0 1-.002-.213h-2zm2.228.795a3.549 3.549 0 0 1-.11-.182l-1.767.939c.053.1.113.194.181.303l1.696-1.06zm-2.22-.442a3 3 0 0 0 .343 1.199l1.766-.939a1 1 0 0 1-.115-.4l-1.995.14zM12 2c-.417 0-.771-.005-1.085.058l.39 1.961C11.377 4.005 11.487 4 12 4V2zm-1.5 3.5c0-.513.005-.623.02-.695l-1.962-.39c-.063.314-.058.668-.058 1.085h2zm.415-3.442a3 3 0 0 0-2.357 2.357l1.961.39a1 1 0 0 1 .786-.786l-.39-1.961zM8.677 13.377l.726.688-.726-.688zm0-2.754l-.725.689.725-.689zM4.61 9.538l-.195-.98.195.98zm2.755.196l.47-.883-.47.883zM6.284 14.5v1-1zm.283-.005l-.07-.997.07.997zm.8-.23l-.47-.882.47.883zM3.037 12.89l-.98.195.98-.195zM5.5 14.5v1-1zm0 1h.783v-2H5.5v2zm.783-7H5.5v2h.783v-2zm1.855 6.468c.533-.333.978-.601 1.265-.903l-1.451-1.377c-.064.068-.215.172-.874.584l1.06 1.696zm-1.06-4.24c.66.412.81.516.874.584l1.45-1.377c-.286-.302-.731-.57-1.264-.903l-1.06 1.696zm2.325 3.337a3 3 0 0 0 0-4.13l-1.451 1.377a1 1 0 0 1 0 1.376l1.45 1.377zM4 12c0-.513.005-.623.02-.695l-1.962-.39C1.995 11.229 2 11.583 2 12h2zm1.5-3.5c-.417 0-.771-.005-1.085.058l.39 1.961c.072-.014.182-.019.695-.019v-2zm-1.48 2.805a1 1 0 0 1 .785-.786l-.39-1.961a3 3 0 0 0-2.357 2.357l1.961.39zm2.263-.805c.156 0 .186 0 .213.002l.14-1.995C6.523 8.5 6.412 8.5 6.283 8.5v2zm1.855-1.468c-.11-.068-.203-.128-.303-.18l-.939 1.765c.024.013.05.028.182.111l1.06-1.696zm-1.642 1.47a1 1 0 0 1 .4.115l.939-1.766a3 3 0 0 0-1.2-.344l-.139 1.995zM6.283 15.5c.129 0 .24 0 .353-.007l-.14-1.995a3.706 3.706 0 0 1-.213.002v2zm.795-2.228a3.549 3.549 0 0 1-.182.11l.939 1.767c.1-.053.194-.113.303-.181l-1.06-1.696zm-.442 2.22c.42-.029.828-.146 1.199-.343l-.939-1.766a1 1 0 0 1-.4.115l.14 1.995zM2 12c0 .417-.005.771.058 1.085l1.961-.39C4.005 12.623 4 12.513 4 12H2zm3.5 1.5c-.513 0-.623-.005-.695-.02l-.39 1.962c.314.063.668.058 1.085.058v-2zm-3.442-.415a3 3 0 0 0 2.357 2.357l.39-1.961a1 1 0 0 1-.786-.786l-1.961.39zm11.319 2.238l.688-.726-.688.726zm-2.754 0l-.688-.726.688.726zM9.538 19.39l-.98.195.98-.195zm.196-2.756l-.883-.469.883.47zm4.766 1.083h1-1zm-.005-.283l-.997.07.997-.07zm-.23-.8l.884-.469-.883.47zm.197 2.756l.98.195-.98-.195zm1.038-.89v-.783h-2v.783h2zm-7-.783v.783h2v-.783h-2zm6.468-1.855c-.333-.533-.601-.978-.903-1.265l-1.377 1.451c.068.064.172.215.584.874l1.696-1.06zm-4.24 1.06c.412-.66.516-.81.584-.874l-1.377-1.45c-.302.286-.57.731-.903 1.264l1.696 1.06zm3.337-2.325a3 3 0 0 0-4.13 0l1.377 1.451a1 1 0 0 1 1.376 0l1.377-1.45zM12 20c-.513 0-.623-.005-.695-.02l-.39 1.962c.314.063.668.058 1.085.058v-2zm-3.5-1.5c0 .417-.005.771.058 1.085l1.961-.39c-.014-.072-.019-.182-.019-.695h-2zm2.805 1.48a1 1 0 0 1-.786-.785l-1.961.39a3 3 0 0 0 2.357 2.357l.39-1.961zm-.805-2.263c0-.156 0-.186.002-.213l-1.995-.14c-.008.113-.007.224-.007.353h2zm-1.468-1.855c-.068.11-.128.203-.18.303l1.765.939c.013-.024.028-.05.111-.182l-1.696-1.06zm1.47 1.642c.01-.14.05-.276.115-.4l-1.766-.939a3 3 0 0 0-.344 1.2l1.995.139zm4.998.213c0-.129 0-.24-.007-.353l-1.995.14c.001.027.002.057.002.213h2zm-2.228-.795c.082.132.098.158.11.182l1.767-.939c-.053-.1-.113-.194-.181-.303l-1.696 1.06zm2.22.442a2.998 2.998 0 0 0-.343-1.199l-1.766.939c.066.124.105.26.115.4l1.995-.14zM12 22c.417 0 .771.005 1.085-.058l-.39-1.961c-.072.014-.182.019-.695.019v2zm1.5-3.5c0 .513-.005.623-.02.695l1.962.39c.063-.314.058-.668.058-1.085h-2zm-.415 3.442a3 3 0 0 0 2.357-2.357l-1.961-.39a1 1 0 0 1-.786.786l.39 1.961z" fill="#fff"/></svg>
